packages/core/assets/Icons/trending_up.svg

<svg viewBox="0 0 20 20" fill="none" xmlns="http://www.w3.org/2000/svg">
<path d="M2.25001 14.6875C2.08334 14.5208 2.00348 14.3229 2.01043 14.0937C2.01737 13.8646 2.09723 13.6736 2.25001 13.5208L6.64584 9.06248C6.96529 8.74304 7.36112 8.58331 7.83334 8.58331C8.30557 8.58331 8.7014 8.74304 9.02084 9.06248L11.1667 11.2291L15.5 6.93748H14.1667C13.9306 6.93748 13.7326 6.85762 13.5729 6.6979C13.4132 6.53817 13.3333 6.34026 13.3333 6.10415C13.3333 5.86804 13.4132 5.67012 13.5729 5.5104C13.7326 5.35067 13.9306 5.27081 14.1667 5.27081H17.5C17.7361 5.27081 17.934 5.35067 18.0938 5.5104C18.2535 5.67012 18.3333 5.86804 18.3333 6.10415V9.43748C18.3333 9.67359 18.2535 9.87151 18.0938 10.0312C17.934 10.191 17.7361 10.2708 17.5 10.2708C17.2639 10.2708 17.066 10.191 16.9063 10.0312C16.7465 9.87151 16.6667 9.67359 16.6667 9.43748V8.10415L12.3542 12.4166C12.0347 12.7361 11.6389 12.8958 11.1667 12.8958C10.6945 12.8958 10.2986 12.7361 9.97918 12.4166L7.83334 10.2708L3.41668 14.6875C3.2639 14.8403 3.06945 14.9166 2.83334 14.9166C2.59723 14.9166 2.40279 14.8403 2.25001 14.6875Z" fill="currentColor"/>
</svg>

<svg xmlns="http://www.w3.org/2000/svg" width="20" height="20" fill="none" viewBox="0 0 20 20">
  <path fill="#201F1F" d="M2.25 14.688a.776.776 0 0 1-.24-.594.814.814 0 0 1 .24-.573l4.396-4.459c.32-.319.715-.479 1.187-.479.473 0 .868.16 1.188.48l2.146 2.166L15.5 6.937h-1.333a.806.806 0 0 1-.594-.24.806.806 0 0 1-.24-.593c0-.236.08-.434.24-.594.16-.16.358-.24.594-.24H17.5c.236 0 .434.08.594.24.16.16.24.358.24.594v3.333c0 .237-.08.435-.24.594a.806.806 0 0 1-.594.24.806.806 0 0 1-.594-.24.806.806 0 0 1-.24-.594V8.104l-4.312 4.313a1.61 1.61 0 0 1-1.187.479c-.473 0-.868-.16-1.188-.48l-2.146-2.145-4.416 4.416a.79.79 0 0 1-.584.23.79.79 0 0 1-.583-.23Z"/>
</svg>
